X:1
T:Title
%%score ( 1 2 ) { 3 | 4 }
L:1/8
Q:1/4=108
M:4/4
K:Ab
V:1 treble nm="Grand Piano, Soprano"
V:2 treble 
V:3 treble nm="Choir Pad, Santa Clara, Ada R. Gibbs"
V:4 bass 
V:1
 E2 [Ac]2- [Ac][Ac] [Ac]2 | [GB]2 A2 [FA]2 [EA]2 | AB c2 E2 F2 | [DG]2 [CA]6 | c2 z2 z4 | %5
w: By~Ada~Rose~Gibbs~(1864\-1905) * * * *|||||
 [Ec]2 [EB]2 [EG]2 E2 | [EF][EF] [EG]2 [EA]2 [EG]2 | [=DF]2 E6 | z4 .G2 z2 | %9
w: ||||
 [Dc]2 [CA]2 [DF]2 [CA]2 | z4 .G2 z2 | [F_c]2 [E=c]6 | [Fc]2 [Fd]2- [Fd][Gc] [FB]2 | %13
w: ||||
 [Fd]2 [=Ec]2 [EB]2 [FA]2 | [Fc]2 [FB]2 [DF]2 [DG]2- | [DG][DG] [CA]6- | [CA]2 z2 z4 |] %17
w: ||||
V:2
 x8 | x8 | x8 | x8 | EF [GB]2 [EG]2 E2 | x8 | x8 | x8 | E2 EF E-[EA] [EB]2 | x8 | %10
 [CE]2 EF E-[EA] [GB]2 | x8 | x8 | x8 | x8 | x8 | x8 |] %17
V:3
 C2 E2- EE E2 | D2 C2 D2 C2 | A,A, C2 E,2 F,2 | B,2 A,6 | A,2 E2 B,2 G,2 | A,2 G,2 B,2 G,2 | %6
 CC B,2 A,2 B,2 | A,2 G,6 | G,2 G,A, B,C D2 | G,2 A,2 A,2 A,2 | A,2 G,A, B,[K:treble]C D2 | D2 C6 | %12
 A,2[K:bass] B,2- B,=A, B,2 | B,2 G,2[K:treble] C2 C2 | A,2 D2 B,2[K:bass] B,2- | B,B, A,6- | %16
 A,2 z2 z4 |] %17
V:4
 A,2 A,2- A,A, A,2 | E,2 A,2 A,2 A,2 | z8 | E,2 A,,6 | z2 E,2 E,2 E,2 | A,,2 E,2 E,2 E,2 | %6
 A,,A,, B,,2 C,2 B,,2 | B,,2 E,6 | E,2 E,2 E,2 E,2 | E,2 A,,2 D,2 A,,2 | A,,2 E,2 E,2 E,2 | %11
 E,2 A,6 | F,2 B,,2- B,,C, D,2 | B,,2 C,2 C,2 F,2 | F,2 B,,2 B,,2 E,2- | E,E, A,,6- | A,,2 z2 z4 |] %17

